svgs/cromite.svg

<svg xmlns="http://www.w3.org/2000/svg" width="212.65" height="204" fill="none" style="-webkit-print-color-adjust:exact" viewBox="-6 -6 212.65 204"><path d="M96 170c40.869 0 74-33.131 74-74 0-40.87-33.131-74-74-74-40.87 0-74 33.13-74 74 0 40.869 33.13 74 74 74Z"/><path stroke="#000" stroke-width="12" d="M96 170c40.869 0 74-33.131 74-74 0-40.87-33.131-74-74-74-40.87 0-74 33.13-74 74 0 40.869 33.13 74 74 74Z"/><path d="M76.193 115.805c10.933 10.934 28.658 10.936 39.588.006 10.931-10.931 10.928-28.655-.005-39.589-10.934-10.933-28.658-10.936-39.589-.005-10.93 10.931-10.928 28.655.006 39.588Zm39.588.006 32.531 32.531m-32.536-72.12 32.548-32.544"/><path stroke="#000" stroke-width="12" d="M76.193 115.805c10.933 10.934 28.658 10.936 39.588.006 10.931-10.931 10.928-28.655-.005-39.589-10.934-10.933-28.658-10.936-39.589-.005-10.93 10.931-10.928 28.655.006 39.588Zm39.588.006 32.531 32.531m-32.536-72.12 32.548-32.544"/></svg>

<svg xmlns:xlink="http://www.w3.org/1999/xlink" width="212.65" xmlns="http://www.w3.org/2000/svg" height="204" id="screenshot-bd07984f-f6cd-8091-8003-37d4d6b36833" viewBox="-6 -6 212.65 204" style="-webkit-print-color-adjust: exact;" fill="none" version="1.1"><g id="shape-bd07984f-f6cd-8091-8003-37d4d6b36833" width="192" height="192" rx="0" ry="0" style="fill: rgb(0, 0, 0);"><g id="shape-bd07984f-f6cd-8091-8003-37d4d6b74a1e"><g class="fills" id="fills-bd07984f-f6cd-8091-8003-37d4d6b74a1e"><path fill="none" rx="0" ry="0" d="M96.000,170.000C136.869,170.000,170.000,136.869,170.000,96.000C170.000,55.130,136.869,22.000,96.000,22.000C55.130,22.000,22.000,55.130,22.000,96.000C22.000,136.869,55.130,170.000,96.000,170.000ZZ" style="fill: none;"/></g><g id="strokes-bd07984f-f6cd-8091-8003-37d4d6b74a1e" class="strokes"><g class="stroke-shape"><path rx="0" ry="0" d="M96.000,170.000C136.869,170.000,170.000,136.869,170.000,96.000C170.000,55.130,136.869,22.000,96.000,22.000C55.130,22.000,22.000,55.130,22.000,96.000C22.000,136.869,55.130,170.000,96.000,170.000ZZ" style="fill: none; stroke-width: 12; stroke: rgb(0, 0, 0); stroke-opacity: 1;"/></g></g></g><g id="shape-bd07984f-f6cd-8091-8003-37d4d6b74a1f"><g class="fills" id="fills-bd07984f-f6cd-8091-8003-37d4d6b74a1f"><path fill="none" rx="0" ry="0" d="M76.193,115.805C87.126,126.739,104.851,126.741,115.781,115.811C126.712,104.880,126.709,87.156,115.776,76.222C104.842,65.289,87.118,65.286,76.187,76.217C65.257,87.148,65.259,104.872,76.193,115.805ZL76.193,115.805ZM115.781,115.811L148.312,148.342M115.776,76.222L148.324,43.678" style="fill: none;"/></g><g id="strokes-bd07984f-f6cd-8091-8003-37d4d6b74a1f" class="strokes"><g class="stroke-shape"><path rx="0" ry="0" d="M76.193,115.805C87.126,126.739,104.851,126.741,115.781,115.811C126.712,104.880,126.709,87.156,115.776,76.222C104.842,65.289,87.118,65.286,76.187,76.217C65.257,87.148,65.259,104.872,76.193,115.805ZL76.193,115.805ZM115.781,115.811L148.312,148.342M115.776,76.222L148.324,43.678" style="fill: none; stroke-width: 12; stroke: rgb(0, 0, 0); stroke-opacity: 1;"/></g></g></g></g></svg>
